X:1
T:Title
%%score 1 { 2 | 3 }
L:1/8
Q:1/4=112
M:4/4
K:F
V:1 treble nm="Grand Piano, Staff"
V:2 bass nm="Choir Pad, Mear, CM"
V:3 bass 
V:1
 [CF]4 [Cc]2 [Ec]2 | [FA]2 [FA]2 [DF]2 [FA]2 | [EG]2 [EG]2 [FA]2 F2 | [Ec]2 [D=B]2 [Ec]4 | %4
w: By~English~tune,~arr.~Aaron~Williams~(1731\-1776) * *||||
 [Fc]4 [Fd]2 [Ec]2 | [Fc]2 F2 [FB]2 [FA]2 | [EG]2 [DF]2 [Ec]2 [FA]2 | [FG]2 [EG]2 F4- | F4 z4 |] %9
w: |||||
V:2
 A,4 A,2 G,2 | F,2 F,2 A,2 C2 | C2 C2 C2 F,2 | G,2 G,2 G,4 | A,4 B,2 G,2 | A,2 A,2 D2 C2 | %6
 C2 F,2 G,2 F,2 | D2 CB, A,4- | A,4 z4 |] %9
V:3
 F,4 F,2 C,2 | z4 D,2 A,,2 | C,2 C,2 F,2 D,2 | C,2 z2 C,4 | F,4 B,,2 C,2 | F,2 D,2 B,,2 F,2 | %6
 C,2 D,2 C,2 z2 | B,,2 C,2 F,4- | F,4 z4 |] %9

